X:94
T:Ouverture (Overture) in D
C:Lully, J.B.
M:2/2
L:1/8
Q:1/2=72
K:D
|:A2|d4 d2 ef|gfed cBAG|F4 FGAB|c4 c2 cd|
efed cBAG|FGAB cdef|gfed cBAB|A4 A2:|

